src/assets/date3.svg

<svg width="81" height="80" viewBox="0 0 81 80" fill="none" xmlns="http://www.w3.org/2000/svg">
<path fill-rule="evenodd" clip-rule="evenodd" d="M30.7271 2.90188C29.8399 3.28757 29.1825 3.90693 28.7737 4.74258C28.4229 5.45943 28.3796 5.71107 28.4271 6.75373C28.506 8.48232 29.1214 9.64075 30.916 11.4379C32.4467 12.971 33.589 13.7941 34.1858 13.7941C34.8231 13.7941 37.8367 12.216 38.927 11.3113C40.4436 10.0529 41.353 8.44241 41.353 7.01512C41.353 5.69035 40.4585 4.30998 39.1907 3.67813C38.262 3.21537 36.6697 3.13601 35.7789 3.50814C35.2747 3.71881 35.2067 3.71104 34.6795 3.3814C34.3704 3.1881 33.8845 2.94987 33.5998 2.85207C32.8973 2.61094 31.3344 2.63806 30.7271 2.90188ZM31.1355 5.40444C30.5403 5.99957 30.5252 6.92845 31.0924 8.04789C31.485 8.82277 33.1116 10.5908 33.9059 11.1061C34.283 11.3506 34.3405 11.3485 35.0068 11.0627C36.7238 10.3268 38.2806 9.03968 38.7778 7.94492C39.1863 7.04528 39.1412 6.67742 38.5502 6.0864C37.8902 5.42637 37.0556 5.38174 35.9893 5.9493C35.0479 6.45045 34.6517 6.43141 34.1079 5.85958C33.497 5.21677 32.9536 4.95919 32.2094 4.95919C31.7176 4.95919 31.4837 5.05622 31.1355 5.40444ZM23.7318 9.08736C23.4653 9.16443 22.873 9.56962 22.4158 9.9876C21.7202 10.6231 21.4879 10.7479 20.9962 10.7491C20.6728 10.7498 20.0651 10.9104 19.6456 11.1057C16.7614 12.4487 17.003 16.0593 20.082 17.6299C21.0701 18.1341 22.5829 18.5128 24.0267 18.6174C25.2039 18.7029 25.3989 18.6802 25.6874 18.4247C26.2038 17.9676 27.2544 16.2547 27.7333 15.0888C28.104 14.1863 28.1718 13.8102 28.1741 12.6397C28.1767 11.368 28.14 11.1965 27.7191 10.5072C26.9308 9.21607 25.2973 8.63434 23.7318 9.08736ZM48.973 10.6834C43.0522 11.7629 38.0858 15.689 36.1738 20.8015C35.8371 21.7016 35.8339 21.7046 35.4336 21.5002C34.5818 21.0653 32.7536 20.488 31.2726 20.1862C29.5351 19.8322 26.5701 19.7606 24.8722 20.0319C22.0215 20.4874 18.5996 21.959 16.2106 23.7567C12.659 26.4296 9.69248 30.635 8.23671 35.0608L7.83016 36.2968L6.98018 36.3845C4.5544 36.6348 2.79718 38.5344 1.88018 41.8981C1.43295 43.5378 1.38908 47.7335 1.79716 49.819C3.01546 56.0442 6.08375 60.3935 10.0899 61.5742C10.8077 61.7858 11.0817 61.9607 11.4348 62.4327C12.1324 63.3656 13.8721 64.9408 15.0639 65.7188L16.1537 66.4302L15.8277 67.5023C15.6484 68.0918 15.3861 69.1568 15.2449 69.8689L14.9879 71.1636L13.5774 72.6012C12.8016 73.3918 12.0426 74.3057 11.8905 74.632C11.6345 75.182 11.6319 75.2625 11.856 75.7324C12.3274 76.7208 13.2231 76.6022 14.0575 75.4407L14.6179 74.6606L14.7226 75.3923C14.8587 76.3435 15.1905 76.7044 15.9296 76.7044C16.6898 76.7044 16.9809 76.2943 16.9809 75.2233C16.9809 74.7813 17.0358 74.4195 17.1027 74.4195C17.1695 74.4195 17.3924 74.7036 17.5977 75.0507C18.4293 76.4567 19.0906 76.7411 19.8239 76.0078C20.1455 75.6862 20.2003 75.5194 20.1292 75.0806C20.0076 74.3316 19.2705 73.2448 18.1762 72.2009L17.244 71.3118L17.7126 69.4222C17.9703 68.3829 18.2129 67.5007 18.2518 67.4619C18.2906 67.423 18.7918 67.5368 19.3653 67.7148C20.7313 68.1384 23.0043 68.4768 24.4919 68.4779C25.1462 68.4784 25.647 68.5344 25.605 68.6025C25.5629 68.6704 25.3859 69.4263 25.2115 70.282L24.8945 71.8379L23.7599 72.9156C21.71 74.8628 21.2319 76.0387 22.1978 76.7568C22.7649 77.1784 23.2861 76.9824 23.9603 76.0939C24.2458 75.7175 24.5402 75.3868 24.6144 75.3589C24.6888 75.3309 24.7495 75.6223 24.7495 76.0063C24.7495 76.8695 25.1296 77.3137 25.8684 77.3137C26.5782 77.3137 26.9017 76.8962 27.016 75.8329L27.1106 74.9526L27.4333 75.4096C27.6108 75.6609 27.8043 76.0215 27.8631 76.211C27.9727 76.5642 28.6567 77.009 29.0902 77.009C29.4861 77.009 30.0811 76.3032 30.0795 75.8354C30.0774 75.1965 29.3123 74.0035 28.2107 72.9212L27.2283 71.9561L27.4375 70.8648C27.5526 70.2647 27.7389 69.4662 27.8518 69.0906L28.0567 68.4075L29.9266 68.2206C34.387 67.7749 38.1561 66.5757 40.3426 64.9066L41.0633 64.3566L42.3294 65.1991C43.8187 66.19 45.1558 66.824 47.1267 67.4736C48.7695 68.015 48.7193 67.9443 49.289 70.5133L49.5881 71.8621L48.4701 73.0324C47.3519 74.203 46.6844 75.2829 46.6844 75.9216C46.6844 76.3825 47.3426 77.009 47.8268 77.009C48.2705 77.009 48.7149 76.5926 49.2664 75.66C49.4718 75.3129 49.6946 75.0288 49.7615 75.0288C49.8284 75.0288 49.8832 75.4058 49.8832 75.8666C49.8832 76.878 50.2201 77.3137 51.002 77.3137C51.6683 77.3137 52.0101 76.9201 52.1416 76.0015L52.2462 75.2699L52.8066 76.05C53.1148 76.4789 53.5136 76.8764 53.6927 76.9333C54.5044 77.1909 55.3885 76.2666 55.0869 75.4757C54.8386 74.8245 53.5655 73.2568 52.73 72.5736L51.9212 71.9121L51.6034 70.3859C51.4287 69.5465 51.2436 68.7568 51.1923 68.6311C51.1117 68.4339 51.4378 68.4007 53.5756 68.3883C55.9238 68.3748 57.1566 68.2072 59.1097 67.6358C59.3932 67.553 59.4664 67.6797 59.8335 68.887C60.0581 69.626 60.3103 70.5999 60.3939 71.0513L60.5461 71.8722L59.4328 73.0375C58.3187 74.2035 57.6518 75.2835 57.6518 75.9216C57.6518 76.3825 58.31 77.009 58.7942 77.009C59.2379 77.009 59.6823 76.5926 60.2338 75.66C60.4392 75.3129 60.662 75.0288 60.7289 75.0288C60.7958 75.0288 60.8506 75.4058 60.8506 75.8666C60.8506 76.878 61.1876 77.3137 61.9694 77.3137C62.6357 77.3137 62.9775 76.9201 63.109 76.0015L63.2136 75.2699L63.774 76.05C64.0822 76.4789 64.481 76.8764 64.6601 76.9333C65.4719 77.1909 66.3559 76.2666 66.0543 75.4757C65.8149 74.8477 64.5766 73.3141 63.7009 72.5608C62.9143 71.8844 62.8575 71.787 62.6762 70.8091C62.5707 70.2395 62.2829 69.0898 62.0368 68.2541C61.7905 67.4185 61.6456 66.7158 61.7149 66.6928C62.0701 66.574 64.5133 65.0419 65.2338 64.4861C65.6889 64.135 66.6708 63.1983 67.4157 62.4045C68.2006 61.5683 69.091 60.7859 69.5328 60.5442C74.2807 57.9478 77.7368 52.9365 78.9772 46.8497C79.1447 46.0268 79.2957 45.0561 79.3123 44.6922C79.329 44.3283 79.388 44.7846 79.4433 45.7062C79.5041 46.7158 79.5191 46.1105 79.4814 44.1829C79.4104 40.5559 79.2568 38.9465 78.8088 37.1304C77.7519 32.8467 75.258 29.8665 72.4525 29.5343L71.7314 29.4488L71.2284 27.8287C70.0649 24.0801 68.536 20.6202 67.0795 18.44C64.9847 15.3041 61.7693 12.7249 58.4395 11.5096C55.6432 10.4892 51.8531 10.1584 48.973 10.6834ZM24.1721 11.4431C23.9847 11.5742 23.6951 11.9489 23.5283 12.2758C23.1244 13.0679 22.8254 13.2018 21.7205 13.0863C20.675 12.9771 20.0993 13.226 19.9414 13.8557C19.696 14.8334 21.1774 15.8904 23.2921 16.2466C24.3216 16.4201 24.3555 16.4154 24.6476 16.0613C25.1768 15.42 25.8489 13.7487 25.9258 12.8825C25.9884 12.1794 25.9463 11.9739 25.6687 11.6234C25.2883 11.1434 24.7009 11.0726 24.1721 11.4431ZM49.26 12.9546C47.2932 13.3275 44.9072 14.2983 43.3332 15.3657C42.3204 16.0527 40.4864 17.8634 39.8337 18.8208C39.1325 19.8494 38.5062 21.0728 38.1485 22.1119L37.8786 22.8966L38.7203 23.7148C42.7407 27.6229 43.4548 34.5118 40.6955 42.7694C40.3195 43.8946 39.6558 45.5982 39.2206 46.5554C37.7298 49.8342 37.6349 50.2258 37.6245 53.1464C37.616 55.5225 37.593 55.7286 37.3135 55.9332C36.8481 56.2738 36.0289 56.1357 35.6726 55.6567C35.4227 55.3205 35.3568 54.9336 35.297 53.448C35.1805 50.562 35.4757 49.3699 37.3706 45.0763C39.308 40.6859 40.3708 35.4018 39.9932 32.0359C39.7752 30.0935 39.4765 29.0162 38.7376 27.5071C37.9019 25.8006 36.9413 24.8445 35.1687 23.9549C32.395 22.5631 30.1431 22.088 26.9273 22.2163C22.5177 22.3922 18.8975 24.0462 15.5337 27.4217C11.2872 31.6827 9.27435 37.0506 8.96269 44.9446C8.65286 52.7936 10.8945 59.382 15.0584 62.8601C16.4317 64.0073 18.7493 65.1689 20.7129 65.6945C22.1492 66.0788 22.4276 66.1018 25.5873 66.0977C31.4019 66.0902 36.0755 65.0967 38.6591 63.3191L39.3674 62.8318L38.6577 61.9614C37.6358 60.7081 37.0879 59.7943 37.0879 59.3434C37.0879 58.4599 38.0058 57.8887 38.6975 58.3419C38.8948 58.4712 39.3251 58.9713 39.6538 59.4532C40.5534 60.7722 41.3789 61.6478 42.6059 62.5837C48.8475 67.3454 57.9677 67.3432 63.8988 62.5788C68.3048 59.0395 70.6735 53.4591 71.2136 45.3452C71.7113 37.8706 69.7878 28.5199 66.3733 21.815C64.0368 17.2272 60.6272 14.3819 56.0118 13.1689C54.4411 12.7561 50.9 12.6437 49.26 12.9546ZM60.5464 19.9972C60.2971 20.3143 60.2427 20.5323 60.3159 20.9227C60.3737 21.2301 60.3402 21.5197 60.2317 21.6504C60.0246 21.9 59.175 21.9463 59.175 21.7081C59.175 21.3818 58.4209 20.801 57.9973 20.801C57.3028 20.801 56.89 21.1878 56.8908 21.8379C56.892 23.0748 58.2449 24.2175 59.7082 24.2175C61.6668 24.2175 63.1449 22.1843 62.5102 20.3635C62.2022 19.4804 61.1129 19.277 60.5464 19.9972ZM49.7097 23.6818C49.4184 23.9176 49.3549 24.1034 49.376 24.6593C49.4209 25.8445 48.4972 26.2204 47.9831 25.2261C47.6135 24.5115 46.7945 24.3863 46.2539 24.9616C45.4784 25.7872 46.18 27.2695 47.6337 27.8768C49.1287 28.5015 50.8366 27.7781 51.4753 26.2494C52.2339 24.4338 50.9988 22.6378 49.7097 23.6818ZM54.9518 25.1657C54.0482 25.4856 52.8397 26.6262 52.3303 27.6398C51.8258 28.6435 51.696 29.1688 51.6878 30.2418C51.6761 31.7479 52.9693 33.7353 54.4848 34.5403C55.4668 35.0619 57.4105 35.0408 58.5657 34.496C60.1766 33.7362 61.2488 32.269 61.4168 30.5948C61.477 29.9951 61.6168 29.578 61.8529 29.2939C62.6287 28.3608 62.5285 27.8095 61.4273 26.954C59.1164 25.1589 56.7875 24.5158 54.9518 25.1657ZM55.5957 27.429C54.9782 27.7641 54.6155 28.1079 54.3613 28.5998C53.9553 29.3847 54.0469 29.4837 55.1765 29.4813C56.8568 29.4776 59.5074 28.6796 59.2459 28.2563C59.195 28.174 58.8063 27.9309 58.3817 27.7158C57.3925 27.2145 56.2144 27.0933 55.5957 27.429ZM18.166 29.1887C17.6023 29.5171 17.5022 30.9803 17.9793 31.9208C19.1024 34.1354 22.4531 33.8827 23.2313 31.5246C23.6896 30.136 21.7591 29.4184 21.125 30.7416C20.9894 31.0242 20.8074 31.1591 20.5612 31.1591C20.1009 31.1591 19.9632 30.934 20.0037 30.2478C20.0611 29.2744 19.0341 28.6826 18.166 29.1887ZM57.9564 31.4086C57.5794 31.5291 56.7055 31.6697 56.0144 31.7208C54.9532 31.7992 54.7858 31.8472 54.937 32.0295C55.7173 32.9697 57.3119 32.8649 58.4515 31.7987C59.1555 31.1401 59.0517 31.0581 57.9564 31.4086ZM72.3369 32.0146C72.4838 32.3975 73.1405 36.2939 73.3608 38.0899C73.6089 40.112 73.6095 45.9187 73.362 47.8387C72.9871 50.7459 72.2115 53.876 71.286 56.2166C71.0724 56.7568 72.8726 54.8814 73.6604 53.7429C75.7351 50.7453 76.9084 47.1498 77.101 43.2007C77.2845 39.4321 76.4076 35.802 74.7763 33.58C74.1782 32.7651 73.6502 32.3389 72.7966 31.9823C72.2695 31.762 72.2407 31.764 72.3369 32.0146ZM28.6372 32.5681C28.1581 32.9844 28.0094 33.7581 28.2423 34.6232C28.6894 36.2834 30.4859 37.2028 32.0258 36.5594C33.4823 35.9508 34.2213 34.3644 33.4033 33.6023C32.796 33.0364 32.0898 33.223 31.5519 34.0914C31.2815 34.5281 30.792 34.6459 30.5921 34.3225C30.5283 34.2192 30.4657 33.8303 30.4532 33.4585C30.4148 32.3234 29.4585 31.8545 28.6372 32.5681ZM22.0838 34.1778C21.6649 34.334 21.1108 34.5715 20.8524 34.7054C20.2826 35.0008 18.8338 36.1054 18.4661 36.5248C18.0698 36.977 18.1345 37.6235 18.6337 38.1988C18.9437 38.556 19.0938 38.9251 19.1584 39.4886C19.4052 41.6397 21.2276 43.2973 23.527 43.4618C25.5622 43.6075 26.925 42.7782 27.9031 40.7993C28.3756 39.8432 28.4719 39.4924 28.4544 38.7893C28.4114 37.0614 27.3595 35.2861 25.8566 34.4053C24.9297 33.8621 23.2081 33.7584 22.0838 34.1778ZM22.1981 36.6364C21.6745 36.8843 21.246 37.1534 21.246 37.2348C21.246 37.5664 23.003 38.052 24.483 38.1292C26.1395 38.2158 26.2023 38.1711 25.6642 37.2889C24.9559 36.1271 23.7533 35.9007 22.1981 36.6364ZM6.39434 38.911C6.05922 39.0656 5.63591 39.3554 5.45373 39.555C4.94969 40.107 4.37283 41.3561 4.08295 42.524C3.71585 44.0021 3.71539 47.8241 4.08204 49.5905C4.89805 53.5212 6.6341 56.8471 8.61753 58.2794L9.01281 58.5649L8.50054 57.2008C7.81066 55.3644 7.28727 53.3634 6.96769 51.3422C6.6082 49.0677 6.61247 43.43 6.97561 40.8059C7.11666 39.7862 7.23213 38.8781 7.23213 38.7876C7.23213 38.5641 7.10524 38.5829 6.39434 38.911ZM22.0429 40.4196C22.7596 41.1977 24.0843 41.4428 24.9165 40.9512C25.1597 40.8076 25.3588 40.6362 25.3588 40.5704C25.3588 40.5047 24.9646 40.4496 24.483 40.4478C24.0013 40.4461 23.1774 40.3545 22.6522 40.2446L21.6974 40.0444L22.0429 40.4196ZM1.50196 45.8585C1.50226 46.8639 1.52694 47.2553 1.55664 46.7284C1.5865 46.2016 1.58634 45.379 1.55618 44.9005C1.52602 44.4221 1.50165 44.8532 1.50196 45.8585Z" fill="white"/>
</svg>

<svg xmlns="http://www.w3.org/2000/svg" width="81" height="80" fill="none" viewBox="0 0 81 80"><path fill="#fff" fill-rule="evenodd" d="M30.727 2.902c-.887.386-1.544 1.005-1.953 1.84-.351.717-.394.97-.347 2.012.079 1.728.694 2.887 2.489 4.684 1.53 1.533 2.673 2.356 3.27 2.356.637 0 3.65-1.578 4.741-2.483 1.517-1.258 2.426-2.869 2.426-4.296 0-1.325-.895-2.705-2.162-3.337-.929-.463-2.521-.542-3.412-.17-.504.21-.572.203-1.1-.127a6.4 6.4 0 0 0-1.08-.529c-.702-.241-2.265-.214-2.872.05m.409 2.502c-.596.596-.61 1.524-.044 2.644.393.775 2.02 2.543 2.814 3.058.377.245.434.242 1.1-.043 1.718-.736 3.275-2.023 3.772-3.118.408-.9.363-1.268-.228-1.859-.66-.66-1.494-.704-2.56-.137-.942.501-1.338.482-1.882-.09-.611-.642-1.154-.9-1.899-.9-.491 0-.725.097-1.074.445m-7.404 3.683c-.267.077-.859.483-1.316.9-.696.636-.928.76-1.42.762-.323 0-.93.161-1.35.357-2.885 1.343-2.643 4.953.436 6.524.988.504 2.5.883 3.945.987 1.177.086 1.372.063 1.66-.192.517-.457 1.567-2.17 2.046-3.336.371-.903.439-1.279.441-2.45.003-1.271-.034-1.442-.455-2.132-.788-1.29-2.422-1.873-3.987-1.42m25.241 1.596c-5.92 1.08-10.887 5.006-12.8 10.119-.336.9-.34.903-.74.698-.851-.435-2.68-1.012-4.16-1.314-1.738-.354-4.703-.425-6.4-.154-2.852.455-6.273 1.927-8.662 3.725-3.552 2.673-6.519 6.878-7.974 11.304l-.407 1.236-.85.088c-2.426.25-4.183 2.15-5.1 5.513-.447 1.64-.49 5.835-.083 7.921 1.218 6.225 4.287 10.575 8.293 11.755.718.212.992.387 1.345.859.697.933 2.437 2.508 3.629 3.286l1.09.711-.326 1.072a30 30 0 0 0-.583 2.367l-.257 1.295-1.41 1.437c-.776.79-1.535 1.705-1.687 2.031-.257.55-.26.63-.035 1.1.471.989 1.367.87 2.201-.291l.56-.78.106.731c.136.952.467 1.312 1.207 1.312.76 0 1.05-.41 1.05-1.48 0-.443.056-.805.123-.805.066 0 .29.285.495.632.831 1.406 1.493 1.69 2.226.957.321-.322.376-.489.305-.927-.121-.75-.859-1.836-1.953-2.88l-.932-.89.469-1.889c.257-1.04.5-1.921.539-1.96s.54.075 1.113.253c1.366.423 3.64.762 5.127.763.654 0 1.155.056 1.113.125-.042.067-.22.823-.393 1.679l-.317 1.556-1.135 1.078c-2.05 1.947-2.528 3.123-1.562 3.84.567.422 1.088.226 1.762-.662.286-.376.58-.707.654-.735s.136.263.136.647c0 .864.38 1.308 1.118 1.308.71 0 1.034-.418 1.148-1.481l.095-.88.322.457c.178.25.371.612.43.801.11.353.794.798 1.227.798.396 0 .991-.706.99-1.174-.003-.638-.768-1.831-1.87-2.914l-.982-.965.21-1.091c.115-.6.3-1.399.414-1.774l.205-.683 1.87-.187c4.46-.446 8.23-1.645 10.416-3.314l.72-.55 1.266.842c1.49.991 2.827 1.625 4.798 2.275 1.642.541 1.592.47 2.162 3.04l.3 1.348-1.119 1.17c-1.118 1.171-1.786 2.25-1.786 2.89 0 .46.659 1.087 1.143 1.087.444 0 .888-.416 1.44-1.349.205-.347.428-.631.494-.631.067 0 .122.377.122.838 0 1.011.337 1.447 1.119 1.447.666 0 1.008-.394 1.14-1.312l.104-.732.56.78c.309.429.708.826.887.883.811.258 1.696-.666 1.394-1.457-.248-.651-1.522-2.22-2.357-2.902l-.809-.662-.318-1.526c-.174-.84-.36-1.63-.41-1.755-.081-.197.245-.23 2.383-.243 2.348-.013 3.58-.18 5.534-.752.283-.083.356.044.724 1.251.224.739.476 1.713.56 2.164l.152.821-1.113 1.165c-1.114 1.166-1.781 2.246-1.781 2.885 0 .46.658 1.087 1.142 1.087.444 0 .888-.416 1.44-1.349.205-.347.428-.631.495-.631s.122.377.122.838c0 1.011.337 1.447 1.118 1.447.667 0 1.008-.394 1.14-1.312l.105-.732.56.78c.308.429.707.826.886.883.812.258 1.696-.666 1.394-1.457-.24-.628-1.477-2.162-2.353-2.915-.787-.677-.843-.774-1.025-1.752-.105-.57-.393-1.72-.64-2.555-.245-.836-.39-1.538-.321-1.561.355-.119 2.798-1.651 3.519-2.207.455-.351 1.437-1.288 2.182-2.082.785-.836 1.675-1.618 2.117-1.86 4.748-2.596 8.204-7.607 9.444-13.694.168-.823.319-1.794.335-2.158s.076.093.131 1.014c.061 1.01.076.404.038-1.523-.07-3.627-.224-5.236-.672-7.053-1.057-4.283-3.551-7.264-6.356-7.596l-.722-.085-.503-1.62c-1.163-3.749-2.692-7.209-4.148-9.389-2.095-3.136-5.31-5.715-8.64-6.93-2.797-1.02-6.587-1.352-9.467-.827m-24.8.76c-.188.131-.478.506-.645.833-.404.792-.703.926-1.807.81-1.046-.109-1.622.14-1.78.77-.245.977 1.236 2.034 3.351 2.39 1.03.174 1.063.17 1.356-.185.529-.641 1.2-2.312 1.278-3.178.062-.704.02-.91-.257-1.26-.38-.48-.968-.55-1.497-.18m25.087 1.512c-1.967.373-4.353 1.343-5.927 2.41-1.013.688-2.847 2.498-3.5 3.456-.7 1.028-1.327 2.252-1.684 3.29l-.27.786.841.818c4.02 3.908 4.735 10.797 1.976 19.054a47 47 0 0 1-1.475 3.786c-1.491 3.28-1.586 3.67-1.596 6.591-.009 2.377-.032 2.583-.312 2.787-.465.34-1.284.203-1.64-.276-.25-.336-.316-.723-.376-2.209-.116-2.886.179-4.078 2.074-8.372 1.937-4.39 3-9.674 2.622-13.04-.218-1.943-.517-3.02-1.255-4.529-.836-1.706-1.797-2.663-3.57-3.552-2.773-1.392-5.025-1.867-8.24-1.739-4.41.176-8.03 1.83-11.394 5.206-4.247 4.26-6.26 9.629-6.571 17.523-.31 7.849 1.932 14.437 6.095 17.915 1.374 1.147 3.691 2.309 5.655 2.835 1.436.384 1.715.407 4.874.403 5.815-.008 10.488-1.001 13.072-2.779l.708-.487-.71-.87c-1.021-1.254-1.57-2.168-1.57-2.619 0-.883.919-1.454 1.61-1.001.198.13.628.63.957 1.111.9 1.32 1.725 2.195 2.952 3.13 6.241 4.762 15.362 4.76 21.293-.004 4.406-3.54 6.775-9.12 7.315-17.234.497-7.474-1.426-16.825-4.84-23.53-2.337-4.588-5.747-7.433-10.362-8.646-1.57-.413-5.112-.525-6.752-.214m11.286 7.042c-.249.317-.303.535-.23.926.058.307.024.597-.084.727-.207.25-1.057.296-1.057.058 0-.326-.754-.907-1.178-.907-.694 0-1.107.387-1.106 1.037.001 1.237 1.354 2.38 2.817 2.38 1.959 0 3.437-2.034 2.802-3.855-.308-.883-1.397-1.086-1.964-.366M49.71 23.682c-.292.236-.355.421-.334.977.045 1.186-.879 1.561-1.393.567-.37-.714-1.188-.84-1.73-.264-.775.825-.073 2.308 1.38 2.915 1.496.625 3.204-.099 3.842-1.628.759-1.815-.476-3.611-1.765-2.567m5.242 1.484c-.904.32-2.112 1.46-2.622 2.474-.504 1.003-.634 1.529-.642 2.602-.012 1.506 1.281 3.493 2.797 4.298.982.522 2.925.5 4.08-.044 1.612-.76 2.684-2.227 2.852-3.901.06-.6.2-1.017.436-1.301.776-.933.675-1.485-.426-2.34-2.31-1.795-4.64-2.438-6.475-1.788m.644 2.263c-.618.335-.98.679-1.235 1.17-.406.786-.314.885.816.882 1.68-.003 4.33-.801 4.069-1.225-.051-.082-.44-.325-.864-.54-.99-.502-2.168-.623-2.786-.287m-37.43 1.76c-.564.328-.664 1.791-.187 2.732 1.123 2.214 4.474 1.962 5.252-.396.459-1.389-1.472-2.107-2.106-.783-.136.282-.318.417-.564.417-.46 0-.598-.225-.557-.911.057-.974-.97-1.565-1.838-1.06m39.79 2.22c-.377.12-1.25.26-1.942.312-1.06.078-1.228.126-1.077.308.78.94 2.375.836 3.515-.23.704-.659.6-.74-.496-.39m14.38.606c.148.383.805 4.279 1.025 6.075.248 2.022.248 7.829.001 9.749-.375 2.907-1.15 6.037-2.076 8.378-.214.54 1.587-1.336 2.374-2.474 2.075-2.998 3.248-6.593 3.441-10.542.183-3.769-.693-7.399-2.325-9.621-.598-.815-1.126-1.241-1.98-1.598-.527-.22-.555-.218-.46.033m-43.699.553c-.479.416-.628 1.19-.395 2.055.447 1.66 2.244 2.58 3.784 1.936 1.456-.608 2.195-2.195 1.377-2.957-.607-.566-1.313-.379-1.851.49-.27.436-.76.554-.96.23-.064-.103-.126-.492-.139-.864-.038-1.135-.994-1.603-1.816-.89m-6.553 1.61c-.42.156-.973.394-1.232.527-.57.296-2.018 1.4-2.386 1.82-.396.452-.332 1.099.168 1.674.31.357.46.726.524 1.29.247 2.15 2.07 3.808 4.369 3.973 2.035.145 3.398-.684 4.376-2.663.473-.956.569-1.307.551-2.01-.043-1.728-1.094-3.503-2.597-4.384-.927-.543-2.649-.647-3.773-.227m.114 2.458c-.524.248-.952.517-.952.599 0 .331 1.757.817 3.237.894 1.657.087 1.72.042 1.181-.84-.708-1.162-1.91-1.388-3.466-.653M6.394 38.911c-.335.155-.758.444-.94.644-.504.552-1.081 1.801-1.371 2.969-.367 1.478-.368 5.3-.001 7.066.816 3.931 2.552 7.257 4.536 8.69l.395.285L8.5 57.2a30.3 30.3 0 0 1-1.533-5.859c-.36-2.274-.356-7.912.008-10.536.14-1.02.256-1.928.256-2.018 0-.224-.127-.205-.838.123m15.649 1.509c.717.778 2.041 1.023 2.874.531.243-.143.442-.315.442-.38 0-.066-.394-.121-.876-.123a11 11 0 0 1-1.83-.203l-.956-.2zm-20.54 5.439c0 1.006.025 1.397.055.87.03-.526.03-1.349 0-1.828-.031-.478-.055-.047-.055.959" clip-rule="evenodd"/></svg>
